!!!!SEGMENT: pl-kk--kk-i-3--015-002_anonim--sabbativale-benedictus.krn
!!!cenid: 15xx:619
!!!COM: Anonim
!!!COM-rismid: pe30004985
!!!CDT:
!!!CNT:
!!!OPR: Sabbativale
!!!OTL: Benedictus
!!!OMV: 002
!!!PDT:
!!!AGN:
!!!SMS-siglum: PL-Kk
!!!SMS-shelfmark: Kk.I.3
!!!SMS-shelfwork: 015-002 M
!!!SMS-variant:
!!!SMS-altvar:
!!!NIFC-rismid: 1001145493
!!!system-decoration: [(s1,s2,s3)]
**kern	**text	**kern	**text	**kern	**text
*part3	*part3	*part2	*part2	*part1	*part1
*staff3	*staff3	*staff2	*staff2	*staff1	*staff1
*I"Basso	*	*I"Tenore	*	*I"Canto	*
*I'B.	*	*I'T.	*	*I'C.	*
*clefF4	*	*clefC4	*	*clefC3	*
*k[]	*	*k[]	*	*k[]	*
*C:	*	*C:	*	*C:	*
*M2/1	*	*M2/1	*	*M2/1	*
=1-	=1-	=1-	=1-	=1-	=1-
*clefF3	*	*clefC3	*	*	*
*2\right	*	*2\right	*	*2\right	*
1F	Be-	1f	Be-	1c	Be-
!	!	!LO:SIC:v:t=custos e	!	!	!
1D	-ne-	1f	-ne-	1d	-ne-
!	!	!LO:PB:g=original	!	!	!
=2-	=2-	=2-	=2-	=2-	=2-
2C/	-di-	1e	.	1e	-di-
1c	.	.	.	.	.
.	.	1d	.	1g	-ctvs
2B\	-ctus	.	.	.	.
=3-	=3-	=3-	=3-	=3-	=3-
1c	ma-	1e	.	1e	ma-
1C	-ri-	1g	.	2e/	-ri-
.	.	.	.	1c\	.
=4-	=4-	=4-	=4-	=4-	=4-
1D	-e	1f	.	.	.
.	.	.	.	2B/	-e
1C	fi-	1e	.	2c/	.
.	.	.	.	1g\	fi-
=5-	=5-	=5-	=5-	=5-	=5-
1G	-li-	1d	di-	.	.
.	.	.	.	2g\	-li-
!	!	!LO:TX:t=P:problem:kreska oddechu na różnych liniach [rozdzielacz słów / znak oddechu]:global	!	!	!
!	!	!	!	!LO:SIC:v:t=custos a	!
2C/	-us	0c,<	-ct(us)	2e/	-us
!LO:LB:g=original	!	!	!	!LO:LB:g=original	!
1F\	qui	.	.	1a\	qvi
=6-	=6-	=6-	=6-	=6-	=6-
.	.	.	.	.	.
2E/	.	.	.	2g\	.
*	*	*lig	*	*	*
1D	.	1f	qvi	2f/	.
.	.	.	.	2d/	ve-
=7-	=7-	=7-	=7-	=7-	=7-
2C/	ve-	1e,<	.	1g	-nit
1c	.	.	.	.	.
*	*	*Xlig	*	*	*
.	.	1d	ve-	2f\	.
2B\	-nit	.	.	2d/	.
=8-	=8-	=8-	=8-	=8-	=8-
1A	.	1A,<	-nit	2e/	.
.	.	.	.	2f\	ni
1G	in	1d,<	in	1g	no-
=9-	=9-	=9-	=9-	=9-	=9-
!	!	!LO:SIC:v:t=custos A	!	!	!
1C	no-	1c	no-	1e	-mi-
!	!	!LO:LB:g=original	!	!	!
1F	-mi-	1A	-mi-	1c	-ne
=10-	=10-	=10-	=10-	=10-	=10-
1D	-ne	1F	-ne	1d	do-
*	*	*lig	*	*	*
1D	do-	1A	do-	1f	.
=11-	=11-	=11-	=11-	=11-	=11-
1C	.	1c	.	1e	.
*	*	*Xlig	*	*	*
*	*	*lig	*	*	*
!	!	!	!	!LO:SIC:v:t=custos e	!
1BB	.	1d	.	1f	.
!	!	!	!	!LO:LB:g=original	!
=12-	=12-	=12-	=12-	=12-	=12-
1C	.	1c	.	2e/	.
.	.	.	.	1c	.
*	*	*Xlig	*	*	*
*	*	*lig	*	*	*
!LO:TX:a:t=P:problem:w źródle nuta doklejona	!	!	!	!	!
1D	.	1f	.	.	.
.	.	.	.	2B/	.
!LO:LB:g=original	!	!	!	!	!
=13-	=13-	=13-	=13-	=13-	=13-
2C/	.	1e	.	1c	.
1c	.	.	.	.	.
*	*	*Xlig	*	*	*
*	*	*lig	*	*	*
.	.	1d	.	1d	.
2B\	.	.	.	.	.
=14-	=14-	=14-	=14-	=14-	=14-
1A	.	1c	.	1e	.
*	*	*Xlig	*	*	*
*	*	*lig	*	*	*
1F	.	1A	.	2f/	.
.	.	.	.	2c/	.
=15-	=15-	=15-	=15-	=15-	=15-
1D	.	1F	.	2d/	.
.	.	.	.	1f	.
*	*	*Xlig	*	*	*
1C	-mi-	1G	-mi-	.	.
.	.	.	.	2e/	-mi-
=16-	=16-	=16-	=16-	=16-	=16-
0F;>	-ni	0F;>	-ni	0f;<	-ni
=17-	=17-	=17-	=17-	=17-	=17-
1A	o-	0A	.	0e	o-
1c	-ſan-	.	.	.	.
=18-	=18-	=18-	=18-	=18-	=18-
!	!	!	!	!LO:SIC:v:t=custos e	!
2d\	-na	1F	.	1f	-san
1c	.	.	.	.	.
!	!	!	!	!LO:PB:g=original	!
!	!	!LO:SIC:v:t=custos c	!	!	!
.	.	1A	.	1e	.
2A/	.	.	.	.	.
!LO:PB:g=original	!	!LO:LB:g=original	!	!	!
=19-	=19-	=19-	=19-	=19-	=19-
2F/	.	1c	.	2f/	.
2A/	.	.	.	2e/	.
*	*	*lig	*	*	*
1G	.	1d	.	1g	.
=20-	=20-	=20-	=20-	=20-	=20-
2E/	.	1c	.	2g\	.
2F/	.	.	.	1f	.
*	*	*Xlig	*	*	*
*	*	*lig	*	*	*
1D	.	1f	.	.	.
.	.	.	.	2d/	.
=21-	=21-	=21-	=21-	=21-	=21-
1C	.	1e	.	2e/	.
.	.	.	.	1c	.
*	*	*Xlig	*	*	*
*	*	*lig	*	*	*
1G	.	1d	.	.	.
.	.	.	.	2B/	.
=22-	=22-	=22-	=22-	=22-	=22-
1A	.	1c	.	1c	.
*	*	*Xlig	*	*	*
*	*	*lig	*	*	*
1F	.	1A	.	2c/	.
.	.	.	.	1f\	.
=23-	=23-	=23-	=23-	=23-	=23-
1D	.	1F	.	.	.
.	.	.	.	2d/	.
*	*	*Xlig	*	*	*
!	!	!	!	!LO:SIC:v:t=custos e	!
1C	.	1G	.	1e	.
!	!	!	!	!LO:LB:g=original	!
=24-	=24-	=24-	=24-	=24-	=24-
!	!	!LO:TX:a:t=P:w źródle brak kreski końcowej:problem	!	!	!
!	!	!	!	!LO:TX:a:t=P:w źródle brak kreski końcowej:problem	!
0F;>	.	0Fl;>	.	0f;<	.
==	==	==	==	==	==
*-	*-	*-	*-	*-	*-
!!title: @{OTL};
!!!RDF**kern: > = above
!!!RDF**kern: < = below
!!!RDF**kern: | = vertical stroke
!!!RDF**kern: N = linked
!!!RDF**kern: i = editorial accidental
!!!RDF**kern: l = terminal long
!!!ENC: Filip Voros
!!!END: 2022-01-02
!!!EED: Wojciech Jakubiak-Danek
!!!EST: 2022-01-03
!!!URL-scan: http://repozytorium.nifc.pl/skany/pl-kk-nut--i-3
!!!ONB-nifc: UWAGA: Canto (s. 70r-v, skan 0072-0073), Tenore (s. 48r-v, skan 0220-0221), Basso (s. 64r-v, skan 0369)
